images/set-03-04.svg

<?xml version="1.0" encoding="UTF-8" standalone="no"?>
<svg width="66px" height="66px" viewBox="0 0 66 66" version="1.1" xmlns="http://www.w3.org/2000/svg" xmlns:xlink="http://www.w3.org/1999/xlink" xmlns:sketch="http://www.bohemiancoding.com/sketch/ns">
    <!-- Generator: Sketch 3.3.3 (12081) - http://www.bohemiancoding.com/sketch -->
    <title>set-03-04</title>
    <desc>Created with Sketch.</desc>
    <defs>
        <linearGradient x1="49.08522%" y1="50%" x2="49.3895484%" y2="49.4085479%" id="linearGradient-1">
            <stop stop-color="#E74C3C" offset="0%"></stop>
            <stop stop-color="#A82A1D" offset="100%"></stop>
        </linearGradient>
    </defs>
    <g id="Page-1" stroke="none" stroke-width="1" fill="none" fill-rule="evenodd" sketch:type="MSPage">
        <g id="set-03-04" sketch:type="MSArtboardGroup">
            <g id="ib-ico-4" sketch:type="MSLayerGroup" transform="translate(9.000000, 6.000000)">
                <g id="Page-1" sketch:type="MSShapeGroup">
                    <g id="ib-ico-4">
                        <g id="Group">
                            <path d="M45.6372,11.994 L26.2992,0.864600003 C24.9408,0.0798000001 23.151,0.0803999997 21.7926,0.864600003 L2.3778,11.994 C0.9972,12.7908 0,14.2758 0,15.8706 L0,38.1288 C0,39.7236 0.9816,41.2104 2.3622,42.006 L21.7002,53.1354 C22.38,53.5272 23.1846,53.7354 23.9694,53.7354 C24.7548,53.7354 25.5438,53.5272 26.223,53.1354 L45.6306,42.006 C47.0112,41.2092 48,39.723 48,38.1288 L48,15.8706 C48,14.2764 47.0178,12.7908 45.6372,11.994 L45.6372,11.994 L45.6372,11.994 Z M9.5274,43.8708 C9.5754,41.2446 11.6748,39 14.2536,39 L22.8,39 L22.8,51.6948 C22.8,51.6582 22.6872,51.5598 22.6092,51.5142 L9.5274,43.8708 L9.5274,43.8708 Z M15.6,27.2472 C16.2,24.8322 18.696,22.8 21.3822,22.8 L26.5308,22.8 C29.6922,22.8 32.298,25.3566 32.6058,28.4376 C32.37,32.9538 28.6314,36.6312 24.057,36.6312 C19.7862,36.6318 16.2,33.5604 15.6,29.4678 L15.6,27.2472 L15.6,27.2472 Z M18.0348,21.897 C19.584,20.3658 21.711,19.4886 24.0564,19.4886 C26.4894,19.4886 28.6842,20.4054 30.246,22.0392 C29.1372,21.4458 27.873,21 26.5308,21 L21.3822,21 C20.1846,21 19.053,21.4182 18.0348,21.897 L18.0348,21.897 L18.0348,21.897 Z M25.3374,51.576 C25.1382,51.6912 24.8712,51.7782 24.6492,51.837 C24.6498,51.822 24.6012,51.8064 24.6012,51.7914 L24.6012,39 L34.3902,39 C36.8496,39 38.8746,41.0532 39.0984,43.5108 L25.3374,51.576 L25.3374,51.576 Z M46.2,38.1288 C46.2,39.0822 45.5634,39.9702 44.7372,40.4472 L40.7166,42.6684 C40.2084,40.2942 38.4,38.3934 36,37.7154 L36,36.8778 C36,36.3822 35.8188,36 35.322,36 L34.8,36 L34.8,34.5858 C34.8,34.089 34.3968,33.6858 33.9,33.6858 C33.4032,33.6858 33,34.089 33,34.5858 L33,36 L30.8178,36 C32.2368,34.8 33.3234,33.1662 33.9162,31.344 C35.577,31.2564 36.7578,29.8848 36.7578,28.203 C36.7578,28.1616 36.5988,28.1166 36.5988,28.0758 L36.5988,21.6816 C37.1988,21.3804 37.599,20.832 37.599,20.1996 C37.599,19.2468 36.8964,18.471 35.9436,18.471 C34.9902,18.471 34.1064,19.2462 34.1064,20.1996 C34.1064,20.811 34.7982,21.3462 34.7982,21.6534 L34.7982,25.3554 C34.7982,25.1916 34.2186,25.0944 33.8178,25.0674 C32.5074,20.8392 28.6332,17.7594 23.9814,17.7594 C19.3158,17.7594 15.3984,20.8566 14.0994,25.1022 C12.6294,25.368 11.5266,26.6514 11.5266,28.197 C11.5266,29.7588 12.6792,31.0596 14.1714,31.308 C14.7636,33.1452 15.8646,34.8 17.2938,36 L12.4926,36 C11.9964,36 11.4,36.3822 11.4,36.879 L11.4,38.0268 C9.6,38.9226 8.0808,40.779 7.7202,43.0062 L3.213,40.4472 C2.388,39.9708 1.8,39.0834 1.8,38.1288 L1.8,15.8706 C1.8,14.9172 2.4366,14.0292 3.2622,13.5528 L22.6002,2.4234 C23.0064,2.1888 23.5002,2.0652 23.9694,2.0652 C24.438,2.0652 24.9162,2.1894 25.323,2.4234 L44.7312,13.5528 C45.5562,14.0292 46.2,14.9178 46.2,15.8706 L46.2,38.1288 L46.2,38.1288 Z" id="Shape" fill="url(#linearGradient-1)"></path>
                            <path d="M28.7196,30.4974 C28.8954,30.6732 29.1258,30.7602 29.3562,30.7602 C29.5866,30.7602 29.8176,30.6726 29.9934,30.4974 C30.345,30.1458 30.345,29.5764 29.9934,29.2248 L26.2176,25.4496 C25.866,25.098 25.2966,25.098 24.945,25.4496 C24.5934,25.8012 24.5934,26.3712 24.945,26.7222 L28.7196,30.4974 L28.7196,30.4974 Z M27.012,29.9376 C26.6604,29.586 26.091,29.586 25.7394,29.9376 C25.3878,30.288 25.3878,30.8586 25.7394,31.2102 L27.3534,32.8248 C27.5292,33.0006 27.7596,33.0882 27.9906,33.0882 C28.221,33.0882 28.4514,33.0006 28.6272,32.8248 C28.9788,32.4738 28.9788,31.9038 28.6272,31.5522 L27.012,29.9376 L27.012,29.9376 Z M16.152,41.0196 C14.9568,41.0196 13.9842,41.9916 13.9842,43.1868 C13.9842,44.3814 14.9568,45.354 16.152,45.354 C17.3472,45.354 18.3198,44.3814 18.3198,43.1868 C18.3198,41.9916 17.3472,41.0196 16.152,41.0196 L16.152,41.0196 Z M26.4846,46.5762 L25.5984,47.4624 C25.2468,47.814 25.2468,48.3834 25.5984,48.735 C25.7742,48.9108 26.0046,48.9978 26.235,48.9978 C26.466,48.9978 26.6964,48.9102 26.8722,48.735 L27.7578,47.8488 C28.1094,47.4972 28.1094,46.9278 27.7578,46.5762 C27.4062,46.2246 26.8362,46.2246 26.4846,46.5762 L26.4846,46.5762 Z M26.4846,43.3146 L25.5984,44.2008 C25.2468,44.5524 25.2468,45.1218 25.5984,45.4734 C25.7742,45.6492 26.0046,45.7368 26.235,45.7368 C26.466,45.7368 26.6964,45.6492 26.8722,45.4734 L27.7578,44.5872 C28.1094,44.2356 28.1094,43.6662 27.7578,43.3146 C27.4062,42.963 26.8362,42.963 26.4846,43.3146 L26.4846,43.3146 Z M9.8082,20.229 L9.2154,19.905 L8.8914,19.3122 C8.7336,19.0236 8.4306,18.8436 8.1018,18.8436 C7.773,18.8436 7.47,19.023 7.3122,19.3116 L6.9876,19.9044 L6.3948,20.229 C6.1062,20.3868 5.9268,20.6898 5.9268,21.0186 C5.9268,21.3474 6.1062,21.6504 6.3948,21.8082 L6.9876,22.1328 L7.3122,22.7256 C7.47,23.0142 7.773,23.1936 8.1018,23.1936 C8.4312,23.1936 8.7336,23.0142 8.8914,22.725 L9.2154,22.1322 L9.8082,21.8082 C10.0968,21.6504 10.2762,21.3474 10.2762,21.0186 C10.2762,20.6898 10.0968,20.3868 9.8082,20.229 L9.8082,20.229 Z M21.7188,10.7592 L21.126,10.4352 L20.802,9.84239998 C20.6442,9.55379999 20.3412,9.37379997 20.0124,9.37379997 C19.6836,9.37379997 19.3806,9.55320003 19.2228,9.84180001 L18.8982,10.4346 L18.3054,10.7592 C18.0168,10.917 17.8374,11.22 17.8374,11.5488 C17.8374,11.8776 18.0168,12.1806 18.3054,12.3384 L18.8982,12.663 L19.2228,13.2558 C19.3806,13.5444 19.6836,13.7238 20.0124,13.7238 C20.3418,13.7238 20.6442,13.5444 20.802,13.2552 L21.126,12.6624 L21.7188,12.3384 C22.0074,12.1806 22.1868,11.8776 22.1868,11.5488 C22.1868,11.22 22.0074,10.917 21.7188,10.7592 L21.7188,10.7592 Z M43.1646,21.5628 L42.5712,21.2388 L42.2466,20.6454 C42.0888,20.3568 41.7852,20.1774 41.4576,20.1774 C41.1282,20.1774 40.8252,20.3568 40.668,20.646 L40.3446,21.2388 L39.7524,21.5628 C39.4638,21.7206 39.2844,22.0236 39.2844,22.3524 C39.2844,22.6812 39.4638,22.9842 39.7524,23.142 L40.3446,23.466 L40.668,24.0588 C40.827,24.3474 41.1294,24.5268 41.4576,24.5268 C41.787,24.5268 42.0894,24.3474 42.2466,24.0594 L42.5712,23.4666 L43.1646,23.1426 C43.452,22.9848 43.632,22.6818 43.632,22.353 C43.632,22.0242 43.4532,21.7206 43.1646,21.5628 L43.1646,21.5628 Z M30.9384,10.521 C29.4012,10.521 28.1508,11.7708 28.1508,13.308 C28.1508,14.8452 29.4012,16.0956 30.9384,16.0956 C32.475,16.0956 33.7254,14.8452 33.7254,13.308 C33.7254,11.7714 32.475,10.521 30.9384,10.521 L30.9384,10.521 Z" id="Shape" fill="#CD2122"></path>
                        </g>
                    </g>
                </g>
            </g>
        </g>
    </g>
</svg>

<svg width="66" height="66" xmlns="http://www.w3.org/2000/svg"><defs><linearGradient x1="49.085%" y1="50%" x2="49.39%" y2="49.409%" id="linearGradient-1"><stop stop-color="#E74C3C" offset="0%"/><stop stop-color="#A82A1D" offset="100%"/></linearGradient></defs><g id="Page-1" stroke="none" stroke-width="1" fill="none" fill-rule="evenodd"><g id="set-03-04"><g id="ib-ico-4" transform="translate(9 6)"><g id="Page-1"><g id="ib-ico-4"><g id="Group"><path d="M45.637 11.994L26.3.864c-1.358-.784-3.148-.784-4.506 0L2.378 11.995C.998 12.791 0 14.276 0 15.871v22.258c0 1.595.982 3.081 2.362 3.877L21.7 53.136c.68.391 1.485.6 2.27.6.785 0 1.574-.209 2.253-.6l19.408-11.13C47.01 41.209 48 39.723 48 38.129V15.87c0-1.595-.982-3.08-2.363-3.877zM9.527 43.871C9.575 41.245 11.675 39 14.254 39H22.8v12.695c0-.037-.113-.135-.19-.18L9.526 43.87zM15.6 27.247c.6-2.415 3.096-4.447 5.782-4.447h5.149c3.161 0 5.767 2.557 6.075 5.638-.236 4.516-3.975 8.193-8.549 8.193-4.27 0-7.857-3.07-8.457-7.163v-2.22zm2.435-5.35c1.549-1.531 3.676-2.408 6.021-2.408 2.433 0 4.628.916 6.19 2.55C29.137 21.446 27.873 21 26.531 21h-5.149c-1.197 0-2.329.418-3.347.897zm7.302 29.679a2.98 2.98 0 01-.688.261c0-.015-.048-.03-.048-.046V39h9.79c2.459 0 4.484 2.053 4.707 4.51l-13.76 8.066zM46.2 38.129c0 .953-.637 1.841-1.463 2.318l-4.02 2.221c-.509-2.374-2.317-4.275-4.717-4.953v-.837c0-.496-.181-.878-.678-.878H34.8v-1.414a.9.9 0 00-1.8 0V36h-2.182c1.419-1.2 2.505-2.834 3.098-4.656 1.661-.088 2.842-1.46 2.842-3.141 0-.041-.16-.086-.16-.127v-6.394c.6-.302 1.001-.85 1.001-1.482 0-.953-.703-1.729-1.655-1.729-.954 0-1.838.775-1.838 1.729 0 .611.692 1.146.692 1.453v3.702c0-.163-.58-.26-.98-.288-1.31-4.228-5.185-7.308-9.837-7.308-4.665 0-8.583 3.098-9.882 7.343a3.136 3.136 0 00-2.572 3.095 3.168 3.168 0 002.644 3.111c.593 1.837 1.694 3.492 3.123 4.692h-4.801c-.497 0-1.093.382-1.093.879v1.148c-1.8.896-3.32 2.752-3.68 4.98l-4.507-2.56C2.388 39.971 1.8 39.083 1.8 38.13V15.87c0-.954.637-1.842 1.462-2.318L22.6 2.423a2.8 2.8 0 011.37-.358c.468 0 .946.124 1.353.358l19.408 11.13c.825.476 1.469 1.365 1.469 2.318v22.258z" id="Shape" fill="url(#linearGradient-1)"/><path d="M28.72 30.497a.9.9 0 001.274-1.273l-3.776-3.774a.9.9 0 10-1.273 1.272l3.775 3.775zm-1.708-.56a.9.9 0 10-1.273 1.273l1.614 1.615a.898.898 0 001.274 0 .9.9 0 000-1.273l-1.615-1.614zM16.152 41.02a2.17 2.17 0 00-2.168 2.167 2.17 2.17 0 002.168 2.167 2.17 2.17 0 002.168-2.167 2.17 2.17 0 00-2.168-2.167zm10.333 5.556l-.887.886a.9.9 0 101.274 1.273l.886-.886a.9.9 0 10-1.273-1.273zm0-3.261l-.887.886a.9.9 0 101.274 1.272l.886-.886a.9.9 0 10-1.273-1.272zM9.808 20.229l-.593-.324-.324-.593a.9.9 0 00-1.579 0l-.324.592-.593.325a.9.9 0 000 1.58l.593.324.324.593a.9.9 0 001.58-.001l.323-.593.593-.324a.9.9 0 000-1.579zm11.91-9.47l-.592-.324-.324-.593a.9.9 0 00-1.58 0l-.324.593-.593.324a.9.9 0 000 1.58l.593.324.325.593a.9.9 0 001.579 0l.324-.594.593-.324a.9.9 0 000-1.579zm21.447 10.804l-.594-.324-.324-.594a.9.9 0 00-1.579.001l-.323.593-.593.324a.9.9 0 000 1.579l.593.324.323.593a.902.902 0 001.579 0l.324-.592.594-.324a.902.902 0 000-1.58zM30.938 10.52a2.79 2.79 0 00-2.787 2.787 2.79 2.79 0 002.787 2.788 2.79 2.79 0 002.787-2.788 2.79 2.79 0 00-2.787-2.787z" id="Shape" fill="#CD2122"/></g></g></g></g></g></g></svg>
